static/images/Empower.svg

<svg width="178" height="179" viewBox="0 0 178 179" fill="none" xmlns="http://www.w3.org/2000/svg">
<circle cx="88.9584" cy="89.8212" r="88.9482" fill="black" fill-opacity="0.25"/>
<mask id="mask0" mask-type="alpha" maskUnits="userSpaceOnUse" x="0" y="0" width="178" height="179">
<circle cx="88.9584" cy="89.8212" r="88.9482" fill="#C4C4C4"/>
</mask>
<g mask="url(#mask0)">
<path fill-rule="evenodd" clip-rule="evenodd" d="M84.6945 52.002C80.7647 52.002 77.5522 55.2144 77.5522 59.1524V68.4055L82.4903 73.9334C86.3701 73.9334 91.8447 71.6596 91.8447 71.6596L97.2439 64.2034L91.8447 59.1521C91.8447 55.2144 88.6325 52.002 84.6945 52.002V52.002Z" fill="#C38C66"/>
<path fill-rule="evenodd" clip-rule="evenodd" d="M70.4014 52.002C66.4717 52.002 63.251 55.2227 63.251 59.1524V68.948C68.0076 73.9294 70.8353 76.4137 71.7865 76.4054L77.5519 68.4058L81.2301 62.9658L77.5519 59.1524C77.5519 55.2144 74.3312 52.002 70.4014 52.002V52.002Z" fill="#C38C66"/>
<path fill-rule="evenodd" clip-rule="evenodd" d="M63.2514 68.9485C60.6231 70.0163 58.7458 72.5696 58.6708 75.5984L58.6517 89.2815C58.4098 98.4596 70.0764 102.365 70.0764 114.697V121.28L86.4658 133.466L107.172 121.28V114.205C107.172 96.7497 117.76 100.922 117.76 84.451V73.9298C117.76 77.1254 115.148 79.7372 111.953 79.7372C108.757 79.7372 106.146 77.1257 106.146 73.9298C106.146 77.5176 102.925 80.4463 98.9952 80.4463C95.0654 80.4463 91.8447 77.5176 91.8447 73.9298V71.6603C91.8447 68.3729 88.3319 68.4063 84.4524 68.4063H77.5523H65.9633C65.0121 68.4145 64.0942 68.6065 63.2514 68.9485V68.9485Z" fill="#D19A6E"/>
<path fill-rule="evenodd" clip-rule="evenodd" d="M66.0381 123.049V179.094C66.0381 180.062 66.8307 180.855 67.807 180.855H93.8556C93.4218 180.012 112.915 164.981 111.202 136.783V123.049C111.202 122.073 110.409 121.28 109.441 121.28H107.172H70.0762H67.8067C66.8307 121.28 66.0381 122.073 66.0381 123.049V123.049Z" fill="#C3DDFF"/>
<path fill-rule="evenodd" clip-rule="evenodd" d="M77.5514 68.4058V59.1524C77.5514 55.2141 74.3307 52.002 70.4009 52.002C68.7489 52.002 67.2304 52.561 66.0205 53.5122C69.2578 54.1882 71.7024 57.0749 71.7024 60.5044V68.4058H77.5514Z" fill="#B57F5F"/>
<path fill-rule="evenodd" clip-rule="evenodd" d="M107.172 114.205C107.172 96.7499 117.76 100.922 117.76 84.4512V73.9297C117.76 77.1253 115.148 79.7371 111.953 79.7371C111.185 79.7371 110.459 79.5867 109.783 79.3198C109.45 79.178 109.124 79.0112 108.824 78.8192V81.7479C108.824 98.2185 98.2358 94.0548 98.2358 111.502V121.281H107.172V114.205Z" fill="#C38C66"/>
<path fill-rule="evenodd" clip-rule="evenodd" d="M111.202 123.049C111.202 122.073 110.409 121.28 109.441 121.28H107.172H98.2358V145.652C100.747 142.79 103.776 140.379 107.172 138.577C108.465 137.893 109.808 137.292 111.202 136.783V123.049Z" fill="#9DC6FB"/>
<path d="M91.8442 59.3123C91.8442 55.5317 88.9738 52.2839 85.2026 52.0198C83.485 51.8994 81.8689 52.3937 80.5721 53.3204C83.3672 54.2882 85.3863 56.9584 85.3863 60.0704V68.406C85.5771 68.4068 85.7665 68.4086 85.9539 68.4111C86.7645 68.4223 87.4045 69.0954 87.3945 69.906C87.3928 70.0412 87.3919 70.1789 87.3917 70.3192C87.3894 72.7836 87.0203 74.8571 85.6624 76.3468C84.4448 77.6822 82.6975 78.4175 80.7418 78.4175H76.417C72.4681 78.4175 70.1082 81.5487 70.1082 84.5763V86.4952C70.1082 86.5839 70.1053 86.6644 70.1031 86.7377C70.0118 89.6809 72.4727 89.9122 73.4059 90C78.3901 90.4527 82.5244 94.029 83.6935 98.8997C83.9362 99.9103 84.8389 100.59 85.8346 100.59C86.016 100.59 86.2009 100.567 86.3854 100.52C87.5665 100.217 88.2425 98.9285 87.9484 97.7452C86.354 91.33 81.0167 86.5702 74.5154 85.6912V84.5766C74.5154 83.8726 75.022 82.8253 76.4167 82.8253H80.7415C83.9519 82.8253 86.856 81.5792 88.9187 79.3168C90.7838 77.2712 91.7935 74.5365 91.8388 71.4978C91.8408 71.5517 91.8439 71.6045 91.8439 71.6604L91.8442 59.3123Z" fill="#B57F5F"/>
<path fill-rule="evenodd" clip-rule="evenodd" d="M106.146 62.9824V73.9294C106.146 77.1251 108.757 79.7368 111.953 79.7368C115.148 79.7368 117.76 77.1253 117.76 73.9294V62.9824C117.76 59.7951 115.148 57.1836 111.953 57.1836C108.757 57.1836 106.146 59.7951 106.146 62.9824V62.9824Z" fill="#C38C66"/>
<path fill-rule="evenodd" clip-rule="evenodd" d="M117.76 62.9824C117.76 59.7951 115.148 57.1836 111.952 57.1836C110.993 57.1836 110.092 57.4172 109.299 57.8262C111.427 58.6938 112.937 60.7799 112.937 63.2163V74.1551C112.937 76.3995 111.652 78.3521 109.783 79.3198C110.459 79.5868 111.185 79.7371 111.952 79.7371C115.148 79.7371 117.76 77.1256 117.76 73.9297V62.9824Z" fill="#B57F5F"/>
<path fill-rule="evenodd" clip-rule="evenodd" d="M91.8442 71.6599V73.9294C91.8442 77.5172 95.0649 80.4458 98.9947 80.4458C102.924 80.4458 106.145 77.5172 106.145 73.9294L111.543 68.948L106.145 62.9824V58.5184C106.145 54.9306 102.924 52.002 98.9947 52.002C95.0649 52.002 91.8442 54.9306 91.8442 58.5184V71.6599Z" fill="#C38C66"/>
<path fill-rule="evenodd" clip-rule="evenodd" d="M106.145 62.9824V58.5184C106.145 54.9306 102.924 52.002 98.9944 52.002C98.0181 52.002 97.0837 52.1771 96.2326 52.5108C98.3267 53.6457 99.7368 55.7315 99.7368 58.1094V62.5816V73.5287C99.7368 76.2154 97.918 78.5434 95.3481 79.5277C96.416 80.1118 97.6676 80.4455 98.9944 80.4455C102.924 80.4455 106.145 77.5169 106.145 73.9291V62.9824Z" fill="#B57F5F"/>
<path fill-rule="evenodd" clip-rule="evenodd" d="M31.253 112.363L14.5659 132.83C14.2154 133.264 14.1572 133.573 14.8497 133.573H21.7415C22.4756 133.573 23.0849 134.182 23.0849 134.925V177.52C23.0849 178.296 23.7189 178.93 24.495 178.93H39.914C40.6901 178.93 41.3241 178.296 41.3241 177.52V134.924C41.3241 134.182 41.9331 133.573 42.6758 133.573H49.5593C50.2601 133.573 50.1933 133.264 49.8431 132.83L33.1643 112.362C32.5548 111.62 31.854 111.62 31.253 112.363V112.363Z" fill="#C3DDFF"/>
<path fill-rule="evenodd" clip-rule="evenodd" d="M33.4815 54.1132L18.7719 72.169C18.4547 72.5529 18.4048 72.8199 19.0223 72.8199H25.0878C25.7469 72.8199 26.2809 73.3538 26.2809 74.013V97.9429C26.2809 98.6272 26.8399 99.1862 27.5241 99.1862H41.124C41.7997 99.1862 42.3673 98.6272 42.3673 97.9429V74.013C42.3673 73.3538 42.9012 72.8199 43.5521 72.8199H49.6261C50.2351 72.8199 50.1852 72.5529 49.8766 72.169L35.1669 54.1132C34.633 53.4623 34.0155 53.4623 33.4815 54.1132V54.1132Z" fill="#C3DDFF"/>
<path fill-rule="evenodd" clip-rule="evenodd" d="M146.987 74.4217L132.269 92.4776C131.96 92.853 131.91 93.1285 132.528 93.1285H138.593C139.244 93.1285 139.786 93.6624 139.786 94.3216V118.252C139.786 118.936 140.345 119.495 141.03 119.495H154.621C155.305 119.495 155.865 118.936 155.865 118.252V94.3216C155.865 93.6624 156.407 93.1285 157.058 93.1285H163.123C163.741 93.1285 163.691 92.8532 163.382 92.4776L148.672 74.4217C148.138 73.7709 147.512 73.7709 146.987 74.4217V74.4217Z" fill="#C3DDFF"/>
<path fill-rule="evenodd" clip-rule="evenodd" d="M96.7545 128.69C86.7755 133.996 79.9756 144.493 79.9756 156.583C79.9756 160.755 80.785 164.735 82.2534 168.373C82.6122 169.257 83.0043 170.125 83.4382 170.968C88.6611 181.147 99.2491 188.122 111.472 188.148H111.539H111.614C129.011 188.106 143.111 173.988 143.111 156.583C143.111 139.153 128.977 125.019 111.539 125.019C107.768 125.019 104.139 125.678 100.784 126.896C99.3911 127.405 98.0477 128.006 96.7545 128.69V128.69Z" fill="#FFE07D"/>
<path fill-rule="evenodd" clip-rule="evenodd" d="M96.7549 146.813C93.7764 150.592 93.7764 156.099 96.7549 159.879C96.9634 160.146 97.1887 160.404 97.4306 160.655L98.9993 162.215L100.785 163.984L110.547 173.663C111.047 174.055 111.298 174.272 111.54 174.28C111.79 174.272 112.04 174.055 112.541 173.663L124.08 162.215L125.657 160.655C129.537 156.633 129.537 150.058 125.657 146.036C122.136 142.382 116.437 143.3 112.674 146.696C111.973 147.321 111.731 147.63 111.54 147.63C111.356 147.63 111.114 147.321 110.413 146.696C107.693 144.242 103.972 143.083 100.785 144.009C99.5583 144.359 98.4069 145.019 97.4306 146.036C97.1887 146.287 96.9634 146.546 96.7549 146.813V146.813Z" fill="#FF8086"/>
<path fill-rule="evenodd" clip-rule="evenodd" d="M118.015 143.909C120.885 147.947 120.559 153.696 117.038 157.343L115.461 158.903L105.566 168.723L110.547 173.663C111.048 174.055 111.298 174.272 111.54 174.28C111.79 174.272 112.04 174.055 112.541 173.663L124.08 162.215L125.657 160.655C129.537 156.633 129.537 150.059 125.657 146.037C123.588 143.892 120.76 143.325 118.015 143.909V143.909Z" fill="#E5646E"/>
<path fill-rule="evenodd" clip-rule="evenodd" d="M143.111 156.583C143.111 139.153 128.977 125.019 111.539 125.019C109.312 125.019 107.126 125.252 105.023 125.695C121.093 127.163 133.683 140.672 133.683 157.126C133.683 172.319 122.936 185.01 108.636 188.014C109.57 188.098 110.513 188.148 111.472 188.148H111.539H111.614C129.011 188.106 143.111 173.988 143.111 156.583V156.583Z" fill="#FFD064"/>
</g>
</svg>

<svg width="178" height="179" fill="none" xmlns="http://www.w3.org/2000/svg"><circle cx="88.958" cy="89.821" r="88.948" fill="#000" fill-opacity=".25"/><mask id="a" maskUnits="userSpaceOnUse" x="0" y="0" width="178" height="179"><circle cx="88.958" cy="89.821" r="88.948" fill="#C4C4C4"/></mask><g mask="url(#a)"><path fill-rule="evenodd" clip-rule="evenodd" d="M84.695 52.002c-3.93 0-7.143 3.212-7.143 7.15v9.254l4.938 5.527c3.88 0 9.355-2.273 9.355-2.273l5.399-7.457-5.4-5.05c0-3.939-3.212-7.151-7.15-7.151z" fill="#C38C66"/><path fill-rule="evenodd" clip-rule="evenodd" d="M70.401 52.002c-3.93 0-7.15 3.22-7.15 7.15v9.796c4.757 4.981 7.584 7.466 8.536 7.457l5.765-8 3.678-5.44-3.678-3.813c0-3.938-3.22-7.15-7.15-7.15z" fill="#C38C66"/><path fill-rule="evenodd" clip-rule="evenodd" d="M63.251 68.948a7.361 7.361 0 0 0-4.58 6.65l-.02 13.683c-.241 9.179 11.425 13.084 11.425 25.416v6.583l16.39 12.186 20.706-12.186v-7.075c0-17.455 10.588-13.283 10.588-29.754V73.93c0 3.195-2.612 5.807-5.807 5.807-3.196 0-5.807-2.611-5.807-5.807 0 3.588-3.221 6.516-7.15 6.516-3.93 0-7.151-2.928-7.151-6.516v-2.27c0-3.287-3.513-3.254-7.393-3.254H65.963a7.38 7.38 0 0 0-2.712.542z" fill="#D19A6E"/><path fill-rule="evenodd" clip-rule="evenodd" d="M66.038 123.049v56.045c0 .968.793 1.761 1.769 1.761h26.049c-.434-.843 19.059-15.874 17.346-44.072v-13.734c0-.976-.793-1.769-1.761-1.769H67.806a1.77 1.77 0 0 0-1.768 1.769z" fill="#C3DDFF"/><path fill-rule="evenodd" clip-rule="evenodd" d="M77.551 68.406v-9.254c0-3.938-3.22-7.15-7.15-7.15-1.652 0-3.17.559-4.38 1.51 3.237.676 5.681 3.563 5.681 6.992v7.902h5.85z" fill="#B57F5F"/><path fill-rule="evenodd" clip-rule="evenodd" d="M107.172 114.205c0-17.455 10.588-13.283 10.588-29.754V73.93c0 3.195-2.612 5.807-5.807 5.807-.768 0-1.494-.15-2.17-.417a6.537 6.537 0 0 1-.959-.5v2.928c0 16.47-10.588 12.307-10.588 29.754v9.779h8.936v-7.076z" fill="#C38C66"/><path fill-rule="evenodd" clip-rule="evenodd" d="M111.202 123.049c0-.976-.793-1.769-1.761-1.769H98.236v24.372a31.632 31.632 0 0 1 12.966-8.869v-13.734z" fill="#9DC6FB"/><path d="M91.844 59.312c0-3.78-2.87-7.028-6.641-7.292a7.081 7.081 0 0 0-4.63 1.3c2.794.968 4.813 3.638 4.813 6.75v8.336c.191 0 .38.003.568.005.81.011 1.45.684 1.44 1.495l-.002.413c-.003 2.465-.372 4.538-1.73 6.028-1.217 1.335-2.965 2.07-4.92 2.07h-4.325c-3.949 0-6.309 3.132-6.309 6.16v1.918c0 .089-.003.17-.005.243-.091 2.943 2.37 3.174 3.303 3.262a11.661 11.661 0 0 1 10.287 8.9 2.205 2.205 0 0 0 2.692 1.62c1.181-.303 1.858-1.591 1.563-2.775a16.065 16.065 0 0 0-13.433-12.054v-1.114c0-.704.507-1.752 1.902-1.752h4.325c3.21 0 6.114-1.246 8.177-3.508 1.865-2.046 2.874-4.78 2.92-7.82.002.055.005.108.005.163V59.312z" fill="#B57F5F"/><path fill-rule="evenodd" clip-rule="evenodd" d="M106.146 62.982V73.93c0 3.196 2.611 5.808 5.807 5.808 3.195 0 5.807-2.612 5.807-5.808V62.982c0-3.187-2.612-5.798-5.807-5.798-3.196 0-5.807 2.611-5.807 5.798z" fill="#C38C66"/><path fill-rule="evenodd" clip-rule="evenodd" d="M117.76 62.982c0-3.187-2.612-5.798-5.808-5.798a5.77 5.77 0 0 0-2.653.642c2.128.868 3.638 2.954 3.638 5.39v10.94a5.823 5.823 0 0 1-3.154 5.164 5.872 5.872 0 0 0 2.169.417c3.196 0 5.808-2.611 5.808-5.807V62.982z" fill="#B57F5F"/><path fill-rule="evenodd" clip-rule="evenodd" d="M91.844 71.66v2.27c0 3.587 3.22 6.516 7.15 6.516s7.151-2.929 7.151-6.517l5.398-4.981-5.398-5.966v-4.464c0-3.587-3.221-6.516-7.15-6.516-3.93 0-7.15 2.929-7.15 6.516V71.66z" fill="#C38C66"/><path fill-rule="evenodd" clip-rule="evenodd" d="M106.145 62.982v-4.464c0-3.587-3.221-6.516-7.15-6.516-.977 0-1.911.175-2.762.509 2.094 1.135 3.504 3.22 3.504 5.598V73.53c0 2.686-1.819 5.014-4.389 5.999a7.6 7.6 0 0 0 3.646.917c3.93 0 7.151-2.928 7.151-6.516V62.982z" fill="#B57F5F"/><path fill-rule="evenodd" clip-rule="evenodd" d="M31.253 112.363L14.566 132.83c-.35.434-.409.743.284.743h6.891c.735 0 1.344.609 1.344 1.352v42.595c0 .776.634 1.41 1.41 1.41h15.419c.776 0 1.41-.634 1.41-1.41v-42.596c0-.742.61-1.351 1.352-1.351h6.883c.701 0 .634-.309.284-.743l-16.679-20.468c-.61-.742-1.31-.742-1.911.001zm2.228-58.25L18.771 72.17c-.316.384-.366.65.251.65h6.066c.659 0 1.193.535 1.193 1.194v23.93c0 .684.559 1.243 1.243 1.243h13.6c.676 0 1.243-.559 1.243-1.243v-23.93c0-.66.534-1.193 1.185-1.193h6.074c.61 0 .56-.267.25-.651l-14.71-18.056c-.533-.65-1.15-.65-1.684 0zm113.506 20.309l-14.718 18.056c-.309.375-.359.65.259.65h6.065c.651 0 1.193.534 1.193 1.194v23.93c0 .684.559 1.243 1.244 1.243h13.591c.684 0 1.244-.559 1.244-1.243v-23.93c0-.66.542-1.194 1.193-1.194h6.065c.618 0 .568-.275.259-.65l-14.71-18.056c-.534-.651-1.16-.651-1.685 0z" fill="#C3DDFF"/><path fill-rule="evenodd" clip-rule="evenodd" d="M96.754 128.69c-9.979 5.306-16.778 15.803-16.778 27.893a31.431 31.431 0 0 0 3.462 14.385c5.223 10.179 15.811 17.154 28.034 17.18h.142c17.397-.042 31.497-14.16 31.497-31.565 0-17.43-14.134-31.564-31.572-31.564-3.771 0-7.4.659-10.755 1.877a32.394 32.394 0 0 0-4.03 1.794z" fill="#FFE07D"/><path fill-rule="evenodd" clip-rule="evenodd" d="M96.755 146.813c-2.979 3.779-2.979 9.286 0 13.066.208.267.434.525.676.776l1.568 1.56 1.786 1.769 9.762 9.679c.5.392.751.609.993.617.25-.008.5-.225 1.001-.617l11.539-11.448 1.577-1.56c3.88-4.022 3.88-10.597 0-14.619-3.521-3.654-9.22-2.736-12.983.66-.701.625-.943.934-1.134.934-.184 0-.426-.309-1.127-.934-2.72-2.454-6.441-3.613-9.628-2.687a7.438 7.438 0 0 0-3.354 2.027c-.242.251-.468.51-.676.777z" fill="#FF8086"/><path fill-rule="evenodd" clip-rule="evenodd" d="M118.015 143.909c2.87 4.038 2.544 9.787-.977 13.434l-1.577 1.56-9.895 9.82 4.981 4.94c.501.392.751.609.993.617.25-.008.5-.225 1.001-.617l11.539-11.448 1.577-1.56c3.88-4.022 3.88-10.596 0-14.618-2.069-2.145-4.897-2.712-7.642-2.128z" fill="#E5646E"/><path fill-rule="evenodd" clip-rule="evenodd" d="M143.111 156.583c0-17.43-14.134-31.564-31.572-31.564-2.227 0-4.413.233-6.516.676 16.07 1.468 28.66 14.977 28.66 31.431 0 15.193-10.747 27.884-25.047 30.888.934.084 1.877.134 2.836.134h.142c17.397-.042 31.497-14.16 31.497-31.565z" fill="#FFD064"/></g></svg>
